src/packages/tokens/img/usdc.svg

<svg width="24" height="24" viewBox="0 0 24 24" fill="none" xmlns="http://www.w3.org/2000/svg">
<g clip-path="url(#clip0_8_2950)">
<path d="M12 24C18.65 24 24 18.65 24 12C24 5.34996 18.65 0 12 0C5.34996 0 0 5.34996 0 12C0 18.65 5.34996 24 12 24Z" fill="#2775CA"/>
<path d="M15.3001 13.8999C15.3001 12.1499 14.2501 11.5499 12.1501 11.2999C10.6501 11.0999 10.3501 10.6999 10.3501 9.99985C10.3501 9.29977 10.8501 8.84989 11.8501 8.84989C12.7501 8.84989 13.2501 9.14989 13.5001 9.89989C13.5501 10.0499 13.7001 10.1499 13.8501 10.1499H14.65C14.8501 10.1499 15.0001 9.99985 15.0001 9.79993V9.74989C14.8 8.64985 13.9 7.79989 12.7501 7.69993V6.49993C12.7501 6.29989 12.6001 6.14989 12.3501 6.09985H11.6001C11.4001 6.09985 11.2501 6.24985 11.2 6.49993V7.64989C9.70002 7.84993 8.7501 8.84989 8.7501 10.0999C8.7501 11.7499 9.75006 12.3999 11.8501 12.6499C13.2501 12.8999 13.7001 13.1999 13.7001 13.9999C13.7001 14.8 13 15.3499 12.0501 15.3499C10.75 15.3499 10.3 14.7999 10.15 14.0499C10.1001 13.8499 9.9501 13.7499 9.8001 13.7499H8.95002C8.7501 13.7499 8.6001 13.8999 8.6001 14.0999V14.1499C8.80002 15.3999 9.60006 16.2999 11.2501 16.5499V17.7499C11.2501 17.9499 11.4001 18.0999 11.65 18.1499H12.4C12.6001 18.1499 12.7501 17.9999 12.8001 17.7499V16.5499C14.3001 16.2999 15.3001 15.2499 15.3001 13.8999Z" fill="white"/>
<path d="M9.45 19.15C5.55 17.7501 3.54996 13.4001 5.00004 9.55004C5.75004 7.45004 7.40004 5.85008 9.45 5.10008C9.65004 5.00012 9.75 4.85012 9.75 4.60004V3.90008C9.75 3.70004 9.65004 3.55004 9.45 3.50012C9.39996 3.50012 9.3 3.50012 9.24996 3.55004C4.5 5.05004 1.89996 10.1001 3.39996 14.8501C4.29996 17.65 6.45 19.8001 9.24996 20.7001C9.45 20.8 9.65004 20.7001 9.69996 20.5C9.75 20.4501 9.75 20.4001 9.75 20.3001V19.6C9.75 19.45 9.6 19.2501 9.45 19.15ZM14.75 3.55004C14.55 3.45008 14.35 3.55004 14.3 3.75008C14.25 3.80012 14.25 3.85004 14.25 3.95012V4.65008C14.25 4.85012 14.4 5.05004 14.55 5.15012C18.45 6.55004 20.45 10.9 19 14.7501C18.25 16.8501 16.6 18.4501 14.55 19.2001C14.35 19.3 14.25 19.45 14.25 19.7001V20.4001C14.25 20.6001 14.35 20.7501 14.55 20.8C14.6 20.8 14.7 20.8 14.75 20.7501C19.5 19.2501 22.1 14.2 20.6 9.45008C19.7 6.60008 17.5 4.45004 14.75 3.55004Z" fill="white"/>
</g>
<defs>
<clipPath id="clip0_8_2950">
<rect width="24" height="24" fill="white"/>
</clipPath>
</defs>
</svg>

<svg xmlns="http://www.w3.org/2000/svg" width="24" height="24" fill="none" xmlns:v="https://vecta.io/nano"><g clip-path="url(#A)"><path d="M12 24a11.97 11.97 0 0 0 12-12A11.97 11.97 0 0 0 12 0 11.97 11.97 0 0 0 0 12a11.97 11.97 0 0 0 12 12z" fill="#2775ca"/><g fill="#fff"><path d="M15.3 13.9c0-1.75-1.05-2.35-3.15-2.6-1.5-.2-1.8-.6-1.8-1.3s.5-1.15 1.5-1.15c.9 0 1.4.3 1.65 1.05.05.15.2.25.35.25h.8A.34.34 0 0 0 15 9.8v-.05c-.2-1.1-1.1-1.95-2.25-2.05V6.5c0-.2-.15-.35-.4-.4h-.75c-.2 0-.35.15-.4.4v1.15c-1.5.2-2.45 1.2-2.45 2.45 0 1.65 1 2.3 3.1 2.55 1.4.25 1.85.55 1.85 1.35s-.7 1.35-1.65 1.35c-1.3 0-1.75-.55-1.9-1.3-.05-.2-.2-.3-.35-.3h-.85a.34.34 0 0 0-.35.35v.05c.2 1.25 1 2.15 2.65 2.4v1.2c0 .2.15.35.4.4h.75c.2 0 .35-.15.4-.4v-1.2c1.5-.25 2.5-1.3 2.5-2.65zm-5.85 5.25A7.45 7.45 0 0 1 5 9.55c.75-2.1 2.4-3.7 4.45-4.45a.5.5 0 0 0 .3-.5v-.7c0-.2-.1-.35-.3-.4-.05 0-.15 0-.2.05C4.5 5.05 1.9 10.1 3.4 14.85c.9 2.8 3.05 4.95 5.85 5.85.2.1.4 0 .45-.2.05-.05.05-.1.05-.2v-.7c0-.15-.15-.35-.3-.45zm5.3-15.6c-.2-.1-.4 0-.45.2-.05.05-.05.1-.05.2v.7c0 .2.15.4.3.5a7.45 7.45 0 0 1 4.45 9.6c-.75 2.1-2.4 3.7-4.45 4.45a.5.5 0 0 0-.3.5v.7c0 .2.1.35.3.4.05 0 .15 0 .2-.05 4.75-1.5 7.35-6.55 5.85-11.3-.9-2.85-3.1-5-5.85-5.9z"/></g></g><defs><clipPath id="A"><path fill="#fff" d="M0 0h24v24H0z"/></clipPath></defs></svg>
